src/lib/packages/icons/src/assets/line/mask-snorkel.svg

<svg xmlns="http://www.w3.org/2000/svg" width="24" height="24" fill="none"><path fill="currentColor" d="m9.08 13.69 1.21-1.94c.13-.21.3-.21.42 0l1.21 1.94c.41.66 1.13 1.06 1.91 1.06H17c.96 0 1.75-.79 1.75-1.75V9c0-2.42-1.33-3.75-3.75-3.75H6C3.58 5.25 2.25 6.58 2.25 9v4c0 .96.79 1.75 1.75 1.75h3.17c.78 0 1.49-.4 1.91-1.06Zm-1.91-.44H4c-.14 0-.25-.11-.25-.25V9c0-1.58.67-2.25 2.25-2.25h9c1.58 0 2.25.67 2.25 2.25v4c0 .14-.11.25-.25.25h-3.17c-.26 0-.5-.13-.64-.35l-1.21-1.94c-.32-.52-.88-.82-1.48-.82s-1.16.31-1.48.82L7.81 12.9c-.14.22-.38.35-.64.35ZM21.75 3v15c0 2.42-1.33 3.75-3.75 3.75h-4.5c-2.42 0-3.75-1.33-3.75-3.75v-.25H8.5c-.41 0-.75-.34-.75-.75s.34-.75.75-.75h4c.41 0 .75.34.75.75s-.34.75-.75.75h-1.25V18c0 1.58.67 2.25 2.25 2.25H18c1.58 0 2.25-.67 2.25-2.25V3c0-.41.34-.75.75-.75s.75.34.75.75Z"/></svg>

<svg width="24" height="24" viewBox="0 0 24 24" fill="none" xmlns="http://www.w3.org/2000/svg">
<path d="M9.07999 13.69L10.29 11.75C10.42 11.54 10.59 11.54 10.71 11.75L11.92 13.69C12.33 14.35 13.05 14.75 13.83 14.75H17C17.96 14.75 18.75 13.96 18.75 13V9C18.75 6.58 17.42 5.25 15 5.25H6C3.58 5.25 2.25 6.58 2.25 9V13C2.25 13.96 3.04 14.75 4 14.75H7.17001C7.95001 14.75 8.65999 14.35 9.07999 13.69ZM7.17001 13.25H4C3.86 13.25 3.75 13.14 3.75 13V9C3.75 7.42 4.42 6.75 6 6.75H15C16.58 6.75 17.25 7.42 17.25 9V13C17.25 13.14 17.14 13.25 17 13.25H13.83C13.57 13.25 13.33 13.12 13.19 12.9L11.98 10.96C11.66 10.44 11.1 10.14 10.5 10.14C9.9 10.14 9.33999 10.45 9.01999 10.96L7.81 12.9C7.67 13.12 7.43001 13.25 7.17001 13.25ZM21.75 3V18C21.75 20.42 20.42 21.75 18 21.75H13.5C11.08 21.75 9.75 20.42 9.75 18V17.75H8.5C8.09 17.75 7.75 17.41 7.75 17C7.75 16.59 8.09 16.25 8.5 16.25H12.5C12.91 16.25 13.25 16.59 13.25 17C13.25 17.41 12.91 17.75 12.5 17.75H11.25V18C11.25 19.58 11.92 20.25 13.5 20.25H18C19.58 20.25 20.25 19.58 20.25 18V3C20.25 2.59 20.59 2.25 21 2.25C21.41 2.25 21.75 2.59 21.75 3Z" fill="currentColor"/>
</svg>
